X:359
T: Jiangxi chulege Fang Zhimin
N: C1860
O: China, Jiangxi Yiyang
S: IV, 223]
R: Xiaodiao]
M: 2/4
L: 1/16
K: F
dfdcA4 | dfdcA4 | A2c4d2 | F2FGA4
A2Acd2d2 | cdcAG4 | F2FAG2F2 | D2DCD4
F2DFG4 | F2FAG2F2 | D2DCD4

